austria/municipalities/70403.svg

<?xml version="1.0" encoding="UTF-8"?>
<!DOCTYPE svg PUBLIC "-//W3C//DTD SVG 1.1//EN" "http://www.w3.org/Graphics/SVG/1.1/DTD/svg11.dtd">
<svg xmlns="http://www.w3.org/2000/svg" version="1.1" width="166px" height="192px" style="shape-rendering:geometricPrecision; text-rendering:geometricPrecision; image-rendering:optimizeQuality; fill-rule:evenodd; clip-rule:evenodd" xmlns:xlink="http://www.w3.org/1999/xlink">
<g><path style="opacity:1" fill="#110806" d="M -0.5,-0.5 C 54.8333,-0.5 110.167,-0.5 165.5,-0.5C 165.5,39.1667 165.5,78.8333 165.5,118.5C 157.389,159.611 132.722,183.944 91.5,191.5C 84.8333,191.5 78.1667,191.5 71.5,191.5C 30.4715,182.805 6.47145,157.805 -0.5,116.5C -0.5,77.5 -0.5,38.5 -0.5,-0.5 Z"/></g>
<g><path style="opacity:1" fill="#d63023" d="M 3.5,3.5 C 56.1667,3.5 108.833,3.5 161.5,3.5C 161.667,41.8348 161.5,80.1681 161,118.5C 154.29,156.876 131.79,179.71 93.5,187C 55.1795,190.094 27.3461,174.594 10,140.5C 6.98601,132.766 4.98601,124.766 4,116.5C 3.50001,78.8348 3.33335,41.1681 3.5,3.5 Z"/></g>
<g><path style="opacity:1" fill="#20150d" d="M 76.5,14.5 C 80.5,14.5 84.5,14.5 88.5,14.5C 88.2437,16.9372 87.5771,19.2706 86.5,21.5C 87,21.8333 87.5,22.1667 88,22.5C 90.4333,21.5212 92.9333,20.8545 95.5,20.5C 95.5,24.5 95.5,28.5 95.5,32.5C 92.8333,32.1667 90.1667,31.8333 87.5,31.5C 87.8333,34.1667 88.1667,36.8333 88.5,39.5C 84.5,39.5 80.5,39.5 76.5,39.5C 76.7792,36.8822 77.4459,34.3822 78.5,32C 75.8078,31.5702 73.1411,31.7369 70.5,32.5C 70.1758,28.4454 70.5091,24.4454 71.5,20.5C 73.6179,21.9459 75.9512,22.6126 78.5,22.5C 78.0372,19.779 77.3705,17.1123 76.5,14.5 Z"/></g>
<g><path style="opacity:1" fill="#e7a61b" d="M 86.5,16.5 C 85.525,19.0667 84.8583,21.7334 84.5,24.5C 87.5455,24.6582 90.3788,23.9915 93,22.5C 93.8184,25.2272 93.6517,27.8938 92.5,30.5C 84.8333,26.8333 82.8333,28.8333 86.5,36.5C 83.8938,37.6517 81.2272,37.8184 78.5,37C 82.3221,28.9842 80.3221,26.8175 72.5,30.5C 71.3483,27.8938 71.1816,25.2272 72,22.5C 74.6212,23.9915 77.4545,24.6582 80.5,24.5C 80.3259,22.139 79.9926,19.8056 79.5,17.5C 81.6074,16.5318 83.9407,16.1984 86.5,16.5 Z"/></g>
<g><path style="opacity:1" fill="#806635" d="M 86.5,16.5 C 83.9407,16.1984 81.6074,16.5318 79.5,17.5C 78.9569,17.44 78.6236,17.1067 78.5,16.5C 81.3092,15.1997 83.9759,15.1997 86.5,16.5 Z"/></g>
<g><path style="opacity:1" fill="#1e140d" d="M 25.5,7.5 C 26.4959,7.41423 27.3292,7.74756 28,8.5C 29.1227,11.2487 30.6227,13.7487 32.5,16C 36.211,16.1747 39.8776,16.6747 43.5,17.5C 41.5797,20.3388 39.9131,23.3388 38.5,26.5C 40.683,29.9902 42.3496,33.6569 43.5,37.5C 39.4454,37.1758 35.4454,37.5091 31.5,38.5C 29.8333,41.1667 28.1667,43.8333 26.5,46.5C 24.3328,44.1698 22.6662,41.5032 21.5,38.5C 17.5546,37.5091 13.5546,37.1758 9.5,37.5C 10.6504,33.6569 12.317,29.9902 14.5,26.5C 12.5797,23.6612 10.9131,20.6612 9.5,17.5C 13.1224,16.6747 16.789,16.1747 20.5,16C 22.0521,13.0568 23.7188,10.2235 25.5,7.5 Z"/></g>
<g><path style="opacity:1" fill="#7e6333" d="M 21.5,17.5 C 18.5,18.1667 15.5,18.8333 12.5,19.5C 11.9569,19.44 11.6236,19.1067 11.5,18.5C 14.7683,17.513 18.1016,17.1796 21.5,17.5 Z"/></g>
<g><path style="opacity:1" fill="#e6a41d" d="M 12.5,19.5 C 15.5,18.8333 18.5,18.1667 21.5,17.5C 23.3902,15.4099 25.0569,13.0765 26.5,10.5C 28.5388,12.7419 30.2054,15.2419 31.5,18C 34.5,18.3333 37.5,18.6667 40.5,19C 39.1839,21.6568 37.8506,24.3235 36.5,27C 37.91,29.8184 39.5766,32.4851 41.5,35C 37.789,35.1747 34.1224,35.6747 30.5,36.5C 29.6493,38.8816 28.316,40.8816 26.5,42.5C 24.6729,40.5 23.0062,38.3333 21.5,36C 18.1667,35.6667 14.8333,35.3333 11.5,35C 13.0704,32.1383 14.737,29.3049 16.5,26.5C 14.9019,24.3021 13.5686,21.9687 12.5,19.5 Z"/></g>
<g><path style="opacity:1" fill="#1f140d" d="M 138.5,6.5 C 140.85,9.3488 142.85,12.5155 144.5,16C 148.5,16.3333 152.5,16.6667 156.5,17C 154.363,20.1259 152.697,23.4592 151.5,27C 152.632,30.2615 154.299,33.2615 156.5,36C 152.687,37.2622 148.687,37.9288 144.5,38C 142.542,40.7482 140.709,43.5815 139,46.5C 136.793,43.9221 134.96,41.0887 133.5,38C 129.514,37.5012 125.514,37.3345 121.5,37.5C 122.74,33.8508 124.407,30.3508 126.5,27C 125.223,23.6121 123.556,20.4454 121.5,17.5C 125.5,16.8333 129.5,16.1667 133.5,15.5C 134.925,12.3116 136.592,9.31159 138.5,6.5 Z"/></g>
<g><path style="opacity:1" fill="#806635" d="M 143.5,17.5 C 146.898,17.1796 150.232,17.513 153.5,18.5C 153.376,19.1067 153.043,19.44 152.5,19.5C 149.5,18.8333 146.5,18.1667 143.5,17.5 Z"/></g>
<g><path style="opacity:1" fill="#e5a41d" d="M 143.5,17.5 C 146.5,18.1667 149.5,18.8333 152.5,19.5C 151.443,21.9413 150.11,24.2746 148.5,26.5C 150.293,29.2511 151.959,32.0844 153.5,35C 150.167,35.3333 146.833,35.6667 143.5,36C 142.002,38.4816 140.502,40.9816 139,43.5C 137.07,41.2417 135.57,38.7417 134.5,36C 130.833,35.6667 127.167,35.3333 123.5,35C 125.578,32.589 127.245,29.9223 128.5,27C 127.556,24.2776 126.223,21.7776 124.5,19.5C 127.833,18.8333 131.167,18.1667 134.5,17.5C 135.501,14.8268 137.001,12.4935 139,10.5C 140.723,12.7167 142.223,15.05 143.5,17.5 Z"/></g>
<g><path style="opacity:1" fill="#7d261a" d="M 129.5,60.5 C 130.497,78.9925 130.83,97.6592 130.5,116.5C 135.695,116.179 140.695,116.513 145.5,117.5C 140.167,117.5 134.833,117.5 129.5,117.5C 129.5,98.5 129.5,79.5 129.5,60.5 Z"/></g>
<g><path style="opacity:1" fill="#18110e" d="M 129.5,60.5 C 129.5,79.5 129.5,98.5 129.5,117.5C 134.833,117.5 140.167,117.5 145.5,117.5C 141.836,125.005 136.502,131.172 129.5,136C 119.946,142.443 109.612,147.276 98.5,150.5C 110.683,153.441 122.016,158.107 132.5,164.5C 99.3291,164.832 66.3291,164.498 33.5,163.5C 44.3421,157.081 56.0088,152.915 68.5,151C 47.9827,146.289 31.6493,135.456 19.5,118.5C 24.7921,117.505 30.1254,117.172 35.5,117.5C 35.3334,97.4972 35.5,77.4972 36,57.5C 39.6194,47.8447 46.6194,42.5114 57,41.5C 67.5711,42.7363 74.5711,48.403 78,58.5C 78.5,78.1638 78.6666,97.8305 78.5,117.5C 81.1667,117.5 83.8333,117.5 86.5,117.5C 86.3334,98.1638 86.5,78.8305 87,59.5C 93.3976,42.0533 104.898,37.5533 121.5,46C 126.136,49.7743 128.803,54.6076 129.5,60.5 Z"/></g>
<g><path style="opacity:1" fill="#fbfbfb" d="M 51.5,43.5 C 63.2277,42.1095 71.3943,46.7762 76,57.5C 76.5,77.8306 76.6666,98.1639 76.5,118.5C 80.5,118.5 84.5,118.5 88.5,118.5C 88.3334,98.4972 88.5,78.4972 89,58.5C 93.9628,45.6023 103.129,41.1023 116.5,45C 122.837,47.8361 126.67,52.6695 128,59.5C 128.5,79.1638 128.667,98.8305 128.5,118.5C 133.511,118.334 138.511,118.501 143.5,119C 122.163,145.447 94.8295,154.78 61.5,147C 45.0107,142.096 31.6774,132.762 21.5,119C 26.4889,118.501 31.4889,118.334 36.5,118.5C 36.3334,99.1638 36.5,79.8305 37,60.5C 39.1602,52.5098 43.9935,46.8431 51.5,43.5 Z"/></g>
<g><path style="opacity:1" fill="#1f1715" d="M 105.5,52.5 C 111.957,51.9749 116.457,54.6416 119,60.5C 119.5,79.8305 119.667,99.1638 119.5,118.5C 112.167,118.5 104.833,118.5 97.5,118.5C 97.3334,99.1638 97.5,79.8305 98,60.5C 99.3532,56.6499 101.853,53.9832 105.5,52.5 Z"/></g>
<g><path style="opacity:1" fill="#060504" d="M 53.5,52.5 C 59.4765,52.071 63.9765,54.4044 67,59.5C 67.5,79.1638 67.6666,98.8305 67.5,118.5C 60.5,118.5 53.5,118.5 46.5,118.5C 46.3334,98.4972 46.5,78.4972 47,58.5C 49.0627,56.2659 51.2294,54.2659 53.5,52.5 Z"/></g>
<g><path style="opacity:1" fill="#7c261a" d="M 65.5,61.5 C 66.4969,79.9925 66.8302,98.6592 66.5,117.5C 59.9779,117.823 53.6446,117.49 47.5,116.5C 53.5,116.5 59.5,116.5 65.5,116.5C 65.5,98.1667 65.5,79.8333 65.5,61.5 Z"/></g>
<g><path style="opacity:1" fill="#d63023" d="M 105.5,54.5 C 110.814,53.7397 114.647,55.7397 117,60.5C 117.5,79.4971 117.667,98.4971 117.5,117.5C 111.5,117.5 105.5,117.5 99.5,117.5C 99.3334,98.1638 99.5,78.8305 100,59.5C 101.73,57.5981 103.563,55.9314 105.5,54.5 Z"/></g>
<g><path style="opacity:1" fill="#d73023" d="M 65.5,61.5 C 65.5,79.8333 65.5,98.1667 65.5,116.5C 59.5,116.5 53.5,116.5 47.5,116.5C 47.3334,97.8304 47.5001,79.1637 48,60.5C 51.3924,54.5333 56.2258,53.0333 62.5,56C 64.16,57.4877 65.16,59.321 65.5,61.5 Z"/></g>
<g><path style="opacity:1" fill="#fdfdfd" d="M -0.5,116.5 C 6.47145,157.805 30.4715,182.805 71.5,191.5C 47.5,191.5 23.5,191.5 -0.5,191.5C -0.5,166.5 -0.5,141.5 -0.5,116.5 Z"/></g>
<g><path style="opacity:1" fill="#fcfcfc" d="M 165.5,118.5 C 165.5,142.833 165.5,167.167 165.5,191.5C 140.833,191.5 116.167,191.5 91.5,191.5C 132.722,183.944 157.389,159.611 165.5,118.5 Z"/></g>
<g><path style="opacity:1" fill="#fbfbfb" d="M 72.5,151.5 C 91.9342,150.109 110.268,153.942 127.5,163C 97.5,163.667 67.5,163.667 37.5,163C 48.7275,157.424 60.3942,153.59 72.5,151.5 Z"/></g>
<g><path style="opacity:1" fill="#391711" d="M 33.5,163.5 C 66.3291,164.498 99.3291,164.832 132.5,164.5C 99.3309,165.83 65.9976,165.83 32.5,164.5C 32.6236,163.893 32.9569,163.56 33.5,163.5 Z"/></g>
</svg>

<svg xmlns="http://www.w3.org/2000/svg" width="166" height="192" style="shape-rendering:geometricPrecision;text-rendering:geometricPrecision;image-rendering:optimizeQuality;fill-rule:evenodd;clip-rule:evenodd"><path style="opacity:1" fill="#110806" d="M-.5-.5h166v119c-8.111 41.111-32.778 65.444-74 73h-20c-41.029-8.695-65.029-33.695-72-75V-.5z"/><path style="opacity:1" fill="#d63023" d="M3.5 3.5h158c.167 38.335 0 76.668-.5 115-6.71 38.376-29.21 61.21-67.5 68.5-38.32 3.094-66.154-12.406-83.5-46.5a97.7 97.7 0 0 1-6-24c-.5-37.665-.667-75.332-.5-113z"/><path style="opacity:1" fill="#20150d" d="M76.5 14.5h12a21.034 21.034 0 0 1-2 7l1.5 1a31.618 31.618 0 0 1 7.5-2v12l-8-1 1 8h-12c.28-2.618.946-5.118 2-7.5a18.164 18.164 0 0 0-8 .5 36.874 36.874 0 0 1 1-12c2.118 1.446 4.451 2.113 7 2a53.805 53.805 0 0 0-2-8z"/><path style="opacity:1" fill="#e7a61b" d="M86.5 16.5a35.167 35.167 0 0 0-2 8c3.046.158 5.879-.509 8.5-2 .818 2.727.652 5.394-.5 8-7.667-3.667-9.667-1.667-6 6-2.606 1.152-5.273 1.318-8 .5 3.822-8.016 1.822-10.183-6-6.5-1.152-2.606-1.318-5.273-.5-8 2.621 1.491 5.454 2.158 8.5 2a51.639 51.639 0 0 0-1-7c2.107-.968 4.44-1.302 7-1z"/><path style="opacity:1" fill="#806635" d="M86.5 16.5c-2.56-.302-4.893.032-7 1-.543-.06-.876-.393-1-1 2.81-1.3 5.476-1.3 8 0z"/><path style="opacity:1" fill="#1e140d" d="M25.5 7.5c.996-.086 1.83.248 2.5 1a28.409 28.409 0 0 0 4.5 7.5c3.711.175 7.378.675 11 1.5a59.006 59.006 0 0 0-5 9 45.011 45.011 0 0 1 5 11 36.874 36.874 0 0 0-12 1l-5 8a24.834 24.834 0 0 1-5-8 36.874 36.874 0 0 0-12-1 45.011 45.011 0 0 1 5-11 59.006 59.006 0 0 1-5-9 62.692 62.692 0 0 1 11-1.5 105.01 105.01 0 0 1 5-8.5z"/><path style="opacity:1" fill="#7e6333" d="m21.5 17.5-9 2c-.543-.06-.876-.393-1-1a25.87 25.87 0 0 1 10-1z"/><path style="opacity:1" fill="#e6a41d" d="m12.5 19.5 9-2a38.268 38.268 0 0 0 5-7 30.078 30.078 0 0 1 5 7.5l9 1c-1.316 2.657-2.65 5.323-4 8a49.87 49.87 0 0 0 5 8 62.692 62.692 0 0 0-11 1.5c-.85 2.382-2.184 4.382-4 6a49.075 49.075 0 0 1-5-6.5l-10-1a166.438 166.438 0 0 1 5-8.5 36.582 36.582 0 0 1-4-7z"/><path style="opacity:1" fill="#1f140d" d="M138.5 6.5c2.35 2.849 4.35 6.015 6 9.5l12 1a40.79 40.79 0 0 0-5 10 29.952 29.952 0 0 0 5 9c-3.813 1.262-7.813 1.929-12 2a113.353 113.353 0 0 0-5.5 8.5 37.937 37.937 0 0 1-5.5-8.5 72.442 72.442 0 0 0-12-.5 50.346 50.346 0 0 1 5-10.5 43.07 43.07 0 0 0-5-9.5l12-2a58.492 58.492 0 0 1 5-9z"/><path style="opacity:1" fill="#806635" d="M143.5 17.5a25.87 25.87 0 0 1 10 1c-.124.607-.457.94-1 1l-9-2z"/><path style="opacity:1" fill="#e5a41d" d="m143.5 17.5 9 2a37.003 37.003 0 0 1-4 7 107.892 107.892 0 0 1 5 8.5l-10 1a1644.782 1644.782 0 0 0-4.5 7.5 26.043 26.043 0 0 1-4.5-7.5l-11-1a30.8 30.8 0 0 0 5-8 27.027 27.027 0 0 0-4-7.5l10-2a19.35 19.35 0 0 1 4.5-7 46.138 46.138 0 0 1 4.5 7z"/><path style="opacity:1" fill="#7d261a" d="M129.5 60.5a784.677 784.677 0 0 1 1 56c5.195-.321 10.195.013 15 1h-16v-57z"/><path style="opacity:1" fill="#18110e" d="M129.5 60.5v57h16c-3.664 7.505-8.998 13.672-16 18.5-9.554 6.443-19.888 11.276-31 14.5 12.183 2.941 23.516 7.607 34 14-33.17.332-66.17-.002-99-1 10.842-6.419 22.509-10.585 35-12.5-20.517-4.711-36.85-15.544-49-32.5a64.875 64.875 0 0 1 16-1c-.167-20.003 0-40.003.5-60 3.62-9.655 10.62-14.989 21-16 10.571 1.236 17.571 6.903 21 17 .5 19.664.667 39.33.5 59h8c-.167-19.336 0-38.67.5-58 6.398-17.447 17.898-21.947 34.5-13.5 4.636 3.774 7.303 8.608 8 14.5z"/><path style="opacity:1" fill="#fbfbfb" d="M51.5 43.5c11.728-1.39 19.894 3.276 24.5 14 .5 20.33.667 40.664.5 61h12c-.167-20.003 0-40.003.5-60 4.963-12.898 14.129-17.398 27.5-13.5 6.337 2.836 10.17 7.67 11.5 14.5.5 19.664.667 39.33.5 59a112.97 112.97 0 0 1 15 .5c-21.337 26.447-48.67 35.78-82 28-16.49-4.904-29.823-14.238-40-28a112.97 112.97 0 0 1 15-.5c-.167-19.336 0-38.67.5-58 2.16-7.99 6.993-13.657 14.5-17z"/><path style="opacity:1" fill="#1f1715" d="M105.5 52.5c6.457-.525 10.957 2.142 13.5 8 .5 19.33.667 38.664.5 58h-22c-.167-19.336 0-38.67.5-58 1.353-3.85 3.853-6.517 7.5-8z"/><path style="opacity:1" fill="#060504" d="M53.5 52.5c5.977-.429 10.477 1.904 13.5 7 .5 19.664.667 39.33.5 59h-21c-.167-20.003 0-40.003.5-60a53.855 53.855 0 0 1 6.5-6z"/><path style="opacity:1" fill="#7c261a" d="M65.5 61.5a784.618 784.618 0 0 1 1 56c-6.522.323-12.855-.01-19-1h18v-55z"/><path style="opacity:1" fill="#d63023" d="M105.5 54.5c5.314-.76 9.147 1.24 11.5 6 .5 18.997.667 37.997.5 57h-18c-.167-19.336 0-38.67.5-58a37.868 37.868 0 0 1 5.5-5z"/><path style="opacity:1" fill="#d73023" d="M65.5 61.5v55h-18c-.167-18.67 0-37.336.5-56 3.392-5.967 8.226-7.467 14.5-4.5 1.66 1.488 2.66 3.321 3 5.5z"/><path style="opacity:1" fill="#fdfdfd" d="M-.5 116.5c6.971 41.305 30.971 66.305 72 75h-72v-75z"/><path style="opacity:1" fill="#fcfcfc" d="M165.5 118.5v73h-74c41.222-7.556 65.889-31.889 74-73z"/><path style="opacity:1" fill="#fbfbfb" d="M72.5 151.5c19.434-1.391 37.768 2.442 55 11.5-30 .667-60 .667-90 0 11.227-5.576 22.894-9.41 35-11.5z"/><path style="opacity:1" fill="#391711" d="M33.5 163.5c32.83.998 65.83 1.332 99 1-33.17 1.33-66.502 1.33-100 0 .124-.607.457-.94 1-1z"/></svg>
